X:5
T:Ghirmbänkler-Juiz  Bb  ABA*CC
T:Edi Schrackmann  (4.11.1930-8.7.1998)
T:Dirigenten-Notiz, Edi Gasser
C:Unterwalden (CH)
%%partsbox
M:3/4
R:Naturjodel
L:1/8
K:Bb
[P:A] "ruhig getragen" B,>D | F3D/F/ B/D/F/d/ | B>GF2 F/d/F/d/ | c>AF2 F/f/e/c/ | dB/d/ !fermata!F2B,>D | F3D/F/ B/D/F/d/ | 
B>GF2 Bd | e/F/d/F/ cF/e/  d>c | "_*" !fermata! !breath!B4 B,>D | F3D/F/ B/D/F/d/ | B>GF2 F/d/F/d/ | 
c>AF2 F/f/e/c/ | dB/D/ !fermata!F2B,>D | F3D/F/ B/D/F/d/ | B>GF2Bd | e/F/d/F/ c>F dc | !fermata!B4 ||
L:1/8
M:3/4
[P:B] "zügiger" !fermata!d !fermata!g | fe cAF2 | EF Ac fe | d3BF2 | fd Bf dB | c3AF2 | 
EF Ac fe | d3F Bd | !fermata! !breath!f4 !fermata!d !fermata!g | fe cAF2 | EF Ac fe | 
d3B F2 | fd Bf dB | c3AF2 | EF Ac fd | (!fermata!B6 | B2) ||
L:1/8
M:3/4
[P:C] !f!F2 | B2 DF Bd | !fermata!f4 !p!F2 | B2DF Bd | f4 !mf!d2 | f3 e/d/ c/F/A/c/ | f>ec2F2 | 
!mp! f3 e/d/ c/F/A/c/ | "rit."f>d !fermata! !breath!B2 !f!F2 | B2DF Bd | !fermata!f4 !p!F2 | B2 DF Bd | 
f4 !mf!d2 | f3 e/d/ c/F/A/c/ | f>e c2F2!mp! | f3 e/d/ c/F/A/c/ | !fermata!B4 |]
W:
W:Reihenfolge: A-B-A (bis*)-2xC
W:
W:'meiner Tochter Martha gewidmet 1997'  Edi Sch.
%W:Edi Schrackmann, bearbeitet: Edi Gasser
W:UJV-Naturjodelsammlung: Code-Nr: 10-03
W:http://www.naturjodler.ch/code 10.htm  (with AUDIO)
%May 6, 2018

